file/caterpillar.svg

<svg clip-rule="evenodd" fill-rule="evenodd" stroke-linejoin="round" stroke-miterlimit="1.41421" viewBox="0 0 560 400" xmlns="http://www.w3.org/2000/svg"><g fill-rule="nonzero" transform="matrix(4.60337 0 0 4.60337 30 159.115)"><path d="m24.348 17.727-8.844-7.411-9.164 7.411z" fill="#ffc400"/><path d="m48.015 1.402c3.137 0 4.104 1.672 4.104 4.362 0 1.908-.486 3.398-2.262 3.869 1.528.274 2.243 1.439 2.243 3.443v4.226c0 .771.201 1.372.333 1.516h-3.783c-.106-.151-.261-.719-.261-1.489v-4.633c0-.829-.427-1.45-1.327-1.45h-.922v7.573h-3.74l-.003-17.417zm11.767-.004c3.444 0 4.025 2.194 4.024 5.252 0 3.059-.581 5.253-4.024 5.253h-2.097v6.912h-3.748v-17.417zm46.181-.005c3.134 0 4.104 1.672 4.104 4.364 0 1.907-.486 3.396-2.262 3.866 1.528.275 2.24 1.44 2.24 3.443v4.227c0 .77.201 1.372.331 1.517h-3.78c-.105-.151-.264-.718-.264-1.489v-4.633c0-.83-.422-1.45-1.324-1.45h-.915v7.572h-3.749v-17.417zm-14.957-.034h5.029l3.003 17.45h-3.789l-.369-3.081-2.705.002-.371 3.079h-3.786zm-25.913.039h3.833v17.41h-3.833zm22.453 17.409h-7.832v-17.41h3.833v14.105h3.999zm-12.752-3.305h3.997v3.305h-7.833v-17.41h3.836zm-34.312-10.786h-4.561v3.45h3.969v3.411h-3.969v3.866l4.716-.002v3.361l-8.555.004v-17.412h8.4zm-33.941 14.062h-1.126c-2.051 0-3.655-1.528-3.655-3.548v-10.451c0-2.038 1.259-3.723 4.59-3.723 3.244.004 4.576 1.681 4.576 3.719v3.689h-3.631v-3.556c0-.505-.409-.915-.914-.915s-.881.41-.881.915v10.009c0 .506.376.916.881.916s.914-.41.914-.916v-3.533h3.636v2.604c0 .62-.115 1.311-.784 1.869zm24.512-13.996h-2.522v13.975h-1.076l-2.974-2.49v-11.485h-2.51v-3.383h9.082zm-11.266-3.365 3.209 13.608-5.73-4.802-5.496 4.437 2.951-13.243zm74.715 11.126-.972-8.127-.974 8.127zm-76.263-3.168-.974-5.004-.979 5.004zm40.572-4.985h-1.138v4.416l1.144.014c.965 0 1.129-.523 1.129-2.17 0-1.594-.163-2.26-1.135-2.26zm-11.542.002h-1.13v3.943l.986-.023c.965 0 1.281-.548 1.281-1.92s-.281-2-1.137-2zm57.948-.009h-1.136v3.92h.993c.966 0 1.28-.548 1.28-1.921 0-1.371-.283-1.999-1.137-1.999z" transform="translate(-1.76044 -1.05626)"/></g></svg>

<?xml version="1.0" encoding="UTF-8" standalone="no"?>
<!DOCTYPE svg PUBLIC "-//W3C//DTD SVG 1.1//EN" "http://www.w3.org/Graphics/SVG/1.1/DTD/svg11.dtd">
<svg width="100%" height="100%" viewBox="0 0 560 400" version="1.1" xmlns="http://www.w3.org/2000/svg" xmlns:xlink="http://www.w3.org/1999/xlink" xml:space="preserve" xmlns:serif="http://www.serif.com/" style="fill-rule:evenodd;clip-rule:evenodd;stroke-linejoin:round;stroke-miterlimit:1.41421;">
    <g transform="matrix(4.60337,0,0,4.60337,30,159.115)">
        <path id="polygon2406" d="M24.348,17.727L15.504,10.316L6.34,17.727L24.348,17.727Z" style="fill:rgb(255,196,0);fill-rule:nonzero;"/>
        <g id="path2384" transform="matrix(1,0,0,1,-1.76044,-1.05626)">
            <path d="M48.015,1.402C51.152,1.402 52.119,3.074 52.119,5.764C52.119,7.672 51.633,9.162 49.857,9.633C51.385,9.907 52.1,11.072 52.1,13.076L52.1,17.302C52.1,18.073 52.301,18.674 52.433,18.818L48.65,18.818C48.544,18.667 48.389,18.099 48.389,17.329L48.389,12.696C48.389,11.867 47.962,11.246 47.062,11.246L46.14,11.246L46.14,18.819L42.4,18.819L42.397,1.402L48.015,1.402ZM59.782,1.398C63.226,1.398 63.807,3.592 63.806,6.65C63.806,9.709 63.225,11.903 59.782,11.903L57.685,11.903L57.685,18.815L53.937,18.815L53.937,1.398L59.782,1.398ZM105.963,1.393C109.097,1.393 110.067,3.065 110.067,5.757C110.067,7.664 109.581,9.153 107.805,9.623C109.333,9.898 110.045,11.063 110.045,13.066L110.045,17.293C110.045,18.063 110.246,18.665 110.376,18.81L106.596,18.81C106.491,18.659 106.332,18.092 106.332,17.321L106.332,12.688C106.332,11.858 105.91,11.238 105.008,11.238L104.093,11.238L104.093,18.81L100.344,18.81L100.344,1.393L105.963,1.393ZM91.006,1.359L96.035,1.359L99.038,18.809L95.249,18.809L94.88,15.728L92.175,15.73L91.804,18.809L88.018,18.809L91.006,1.359ZM65.093,1.398L68.926,1.398L68.926,18.808L65.093,18.808L65.093,1.398ZM87.546,18.807L79.714,18.807L79.714,1.397L83.547,1.397L83.547,15.502L87.546,15.502L87.546,18.807ZM74.794,15.502L78.791,15.502L78.791,18.807L70.958,18.807L70.958,1.397L74.794,1.397L74.794,15.502ZM40.482,4.716L35.921,4.716L35.921,8.166L39.89,8.166L39.89,11.577L35.921,11.577L35.921,15.443L40.637,15.441L40.637,18.802L32.082,18.806L32.082,1.394L40.482,1.394L40.482,4.716ZM6.541,18.778L5.415,18.778C3.364,18.778 1.76,17.25 1.76,15.23L1.76,4.779C1.76,2.741 3.019,1.056 6.35,1.056C9.594,1.06 10.926,2.737 10.926,4.775L10.926,8.464L7.295,8.464L7.295,4.908C7.295,4.403 6.886,3.993 6.381,3.993C5.876,3.993 5.5,4.403 5.5,4.908L5.5,14.917C5.5,15.423 5.876,15.833 6.381,15.833C6.886,15.833 7.295,15.423 7.295,14.917L7.295,11.384L10.931,11.384L10.931,13.988C10.931,14.608 10.816,15.299 10.147,15.857L6.541,18.778ZM31.053,4.782L28.531,4.782L28.531,18.757L27.455,18.757L24.481,16.267L24.481,4.782L21.971,4.782L21.971,1.399L31.053,1.399L31.053,4.782ZM19.787,1.417L22.996,15.025L17.266,10.223L11.77,14.66L14.721,1.417L19.787,1.417ZM94.502,12.543L93.53,4.416L92.556,12.543L94.502,12.543ZM18.239,9.375L17.265,4.371L16.286,9.375L18.239,9.375ZM58.811,4.39L57.673,4.39L57.673,8.806L58.817,8.82C59.782,8.82 59.946,8.297 59.946,6.65C59.946,5.056 59.783,4.39 58.811,4.39ZM47.269,4.392L46.139,4.392L46.139,8.335L47.125,8.312C48.09,8.312 48.406,7.764 48.406,6.392C48.406,5.02 48.125,4.392 47.269,4.392ZM105.217,4.383L104.081,4.383L104.081,8.303L105.074,8.303C106.04,8.303 106.354,7.755 106.354,6.382C106.354,5.011 106.071,4.383 105.217,4.383Z" style="fill-rule:nonzero;"/>
        </g>
    </g>
</svg>
